apps/common/main/resources/img/toolbar/2.5x/big/btn-menu-navigation.svg

<svg xmlns="http://www.w3.org/2000/svg" width="28" height="28" fill="none" viewBox="0 0 28 28">
  <path fill="#000" fill-rule="evenodd" d="M18 8H5v1h13V8Zm3 4H8v1h13v-1Zm-10 4h13v1H11v-1Zm7 4H5v1h13v-1Z" clip-rule="evenodd"/>
</svg>

<svg width="28" height="28" viewBox="0 0 28 28" fill="none" xmlns="http://www.w3.org/2000/svg">
<path d="M18 8H5V9H18V8Z" fill="black"/>
<path d="M21 12H8V13H21V12Z" fill="black"/>
<path d="M11 16H24V17H11V16Z" fill="black"/>
<path d="M18 20H5V21H18V20Z" fill="black"/>
</svg>
